i_ve_arrived_flutter/images/password.svg

<svg height="15.723" viewBox="0 0 13.758 15.723" width="13.758" xmlns="http://www.w3.org/2000/svg"><g fill="#acd9ae"><path d="m45.144 11.117a.614.614 0 0 0 .614-.614v-2.273a2.46 2.46 0 0 0 -2.458-2.457h-.738v-2.166a3.686 3.686 0 0 0 -7.37 0v2.166h-.736a2.46 2.46 0 0 0 -2.456 2.457v5.036a2.46 2.46 0 0 0 2.457 2.457h8.843a2.46 2.46 0 0 0 2.457-2.457.614.614 0 1 0 -1.228 0 1.23 1.23 0 0 1 -1.229 1.229h-8.843a1.23 1.23 0 0 1 -1.228-1.228v-5.037a1.23 1.23 0 0 1 1.228-1.23h8.843a1.23 1.23 0 0 1 1.229 1.23v2.27a.614.614 0 0 0 .615.617zm-3.81-5.344h-4.913v-2.166a2.458 2.458 0 0 1 4.913 0z" transform="translate(-32)"/><circle cx="7" cy="10.723" r="1"/><circle cx="4" cy="10.723" r="1"/><circle cx="10" cy="10.723" r="1"/></g></svg>

<svg xmlns="http://www.w3.org/2000/svg" width="13.758" height="15.723" viewBox="0 0 13.758 15.723">
    <defs>
        <style>
            .prefix__cls-1{fill:#acd9ae}
        </style>
    </defs>
    <g id="prefix__password" transform="translate(-32)">
        <g id="prefix__Group_16012" data-name="Group 16012" transform="translate(32)">
            <g id="prefix__Group_16011" data-name="Group 16011">
                <path id="prefix__Path_89" d="M45.144 11.117a.614.614 0 0 0 .614-.614V8.23A2.46 2.46 0 0 0 43.3 5.773h-.738V3.607a3.686 3.686 0 0 0-7.37 0v2.166h-.736A2.46 2.46 0 0 0 32 8.23v5.036a2.46 2.46 0 0 0 2.457 2.457H43.3a2.46 2.46 0 0 0 2.457-2.457.614.614 0 1 0-1.228 0 1.23 1.23 0 0 1-1.229 1.229h-8.843a1.23 1.23 0 0 1-1.228-1.228V8.23A1.23 1.23 0 0 1 34.457 7H43.3a1.23 1.23 0 0 1 1.229 1.23v2.27a.614.614 0 0 0 .615.617zm-3.81-5.344h-4.913V3.607a2.458 2.458 0 0 1 4.913 0z" class="prefix__cls-1" data-name="Path 89" transform="translate(-32)"/>
                <circle id="prefix__Ellipse_4" cx="1" cy="1" r="1" class="prefix__cls-1" data-name="Ellipse 4" transform="translate(6 9.723)"/>
                <circle id="prefix__Ellipse_5" cx="1" cy="1" r="1" class="prefix__cls-1" data-name="Ellipse 5" transform="translate(3 9.723)"/>
                <circle id="prefix__Ellipse_6" cx="1" cy="1" r="1" class="prefix__cls-1" data-name="Ellipse 6" transform="translate(9 9.723)"/>
            </g>
        </g>
    </g>
</svg>
